packages/bezier-icons/icons/trending-down.svg

<svg width="24" height="24" viewBox="0 0 24 24" fill="none" xmlns="http://www.w3.org/2000/svg">
<path fill-rule="evenodd" clip-rule="evenodd" d="M11.6341 17.8485L6.46807 12.6825C6.21607 12.4305 6.39407 11.9995 6.75107 11.9995H9.9989V6.5C9.9989 6.224 10.2229 6 10.4989 6H13.4989C13.7749 6 13.9989 6.224 13.9989 6.5V11.9995H17.2481C17.6051 11.9995 17.7831 12.4305 17.5311 12.6825L12.3661 17.8485C12.1631 18.0505 11.8361 18.0505 11.6341 17.8485Z" fill="#313234"/>
</svg>

<svg xmlns="http://www.w3.org/2000/svg" width="24" height="24" fill="none" viewBox="0 0 24 24"><path fill="#313234" fill-rule="evenodd" d="m11.634 17.849-5.166-5.167A.4.4 0 0 1 6.751 12H10V6.5a.5.5 0 0 1 .5-.5h3a.5.5 0 0 1 .5.5V12h3.25a.4.4 0 0 1 .282.682l-5.165 5.167a.52.52 0 0 1-.732 0" clip-rule="evenodd"/></svg>
